X: 22151
T: Kylebrack Rambler, The
R: reel
M: 4/4
K: Dmixolydian
|:DA,~A,2 DA,=FA,|DA,~A,2 CA,G,A,|DA,~A,2 DA,AG|FDAF (3GGG FG|
Add^c d=cAB|cG (3ABc GECE|DCA,G, A,D (3DDD|1 (3FGA GE (3DDD DC:|2 (3FGA GE DEFG||
|:A3G FD (3DDD|dedc AG (3GAB|c2Gc EGce|dced cAGe|
dafd eA (3AAA|^cA (3AAA EA^CA|GE (3EEE CDEG|cAGE DEFG:|
|:AD (3DDD A,D (3DDD|dA (3AAA dcAB|c3B cAGE|(3ccc BB cAGE|
FD (3DDD A,D (3DDD|dA (3AAA dcAB|1 BccB cAGE|CDEC DEFG:|2 c3B cAGE|CDEC DDCE:|

